raw/symbols/ngn.svg

<svg xmlns="http://www.w3.org/2000/svg" width="42" height="42" fill="none"><mask id="a" width="42" height="42" x="0" y="0" maskUnits="userSpaceOnUse" style="mask-type:alpha"><circle cx="21" cy="21" r="21" fill="#D9D9D9"/></mask><g mask="url(#a)"><path fill="#008751" d="M-15.75 0h73.5v42h-73.5V0Z"/><path fill="#fff" d="M-17.75 0h49v42h-49V0Z"/><path fill="#008751" d="M-13.75 0h24.5v42h-24.5V0Z"/></g></svg>

<svg width="42" height="42" viewBox="0 0 42 42" fill="none" xmlns="http://www.w3.org/2000/svg">
<mask id="mask0_3612_304588" style="mask-type:alpha" maskUnits="userSpaceOnUse" x="0" y="0" width="42" height="42">
<circle cx="21" cy="21" r="21" fill="#D9D9D9"/>
</mask>
<g mask="url(#mask0_3612_304588)">
<path d="M-15.75 0H57.75V42H-15.75V0Z" fill="#008751"/>
<path d="M-17.75 0H31.25V42H-17.75V0Z" fill="white"/>
<path d="M-13.75 0H10.75V42H-13.75V0Z" fill="#008751"/>
</g>
</svg>
